icon_installer/data/icons/scalable/actions/show-image-print-symbolic.svg

<?xml version="1.0" encoding="UTF-8"?>
<svg height="16px" viewBox="0 0 16 16" width="16px" xmlns="http://www.w3.org/2000/svg">
    <g fill="#2e3436">
        <path d="m 8 2 v 5 h 5 z m 0 0"/>
        <path d="m 9.523438 8.808594 l -2.421876 2.390625 l -1.605468 -1.699219 l -3.144532 3.144531 l 0.703126 0.710938 l 2.421874 -2.421875 l 3.878907 4.101562 l 0.726562 -0.6875 l -2.292969 -2.421875 l 1.738282 -1.71875 l 2.6875 2.628907 l 0.699218 -0.710938 z m 0 0"/>
        <path d="m 6.96875 6.984375 c 0 0.554687 -0.449219 1 -1 1 c -0.554688 0 -1 -0.445313 -1 -1 c 0 -0.550781 0.445312 -1 1 -1 c 0.550781 0 1 0.449219 1 1 z m 0 0"/>
        <path d="m 2 13 c 0 1.660156 1.339844 3 3 3 h 6 c 1.660156 0 3 -1.339844 3 -3 v -6 c 0 -0.90625 -0.359375 -1.773438 -1 -2.414062 l -2.585938 -2.585938 c -0.640624 -0.640625 -1.507812 -1 -2.414062 -1 h -3 c -1.660156 0 -3 1.339844 -3 3 z m 3 -10 h 3 c 0.375 0 0.734375 0.148438 1 0.414062 l 2.585938 2.585938 c 0.265624 0.265625 0.414062 0.625 0.414062 1 v 6 c 0 0.546875 -0.453125 1 -1 1 h -6 c -0.546875 0 -1 -0.453125 -1 -1 v -9 c 0 -0.546875 0.453125 -1 1 -1 z m 0 0"/>
    </g>
</svg>

<svg xmlns="http://www.w3.org/2000/svg" width="16" height="16"><g fill="#2e3436"><path d="M8 2v5h5zm1.523 6.809-2.421 2.39L5.496 9.5l-3.144 3.145.703.71 2.422-2.421 3.878 4.101.727-.687-2.293-2.422 1.738-1.719 2.688 2.629.7-.711zM6.969 6.984a1 1 0 1 1-2 .002 1 1 0 0 1 2-.002zm0 0"/><path d="M2 13c0 1.66 1.34 3 3 3h6c1.66 0 3-1.34 3-3V7c0-.906-.36-1.773-1-2.414L10.414 2C9.774 1.36 8.906 1 8 1H5C3.34 1 2 2.34 2 4zM5 3h3c.375 0 .734.148 1 .414L11.586 6c.266.266.414.625.414 1v6c0 .547-.453 1-1 1H5c-.547 0-1-.453-1-1V4c0-.547.453-1 1-1zm0 0"/></g></svg>
